icons/weapons/mine.svg

<svg xmlns="http://www.w3.org/2000/svg" xmlns:xlink="http://www.w3.org/1999/xlink" width="128pt" height="127pt" viewBox="0 0 128 127" version="1.1">
<g id="surface1">
<path d="M 80.933594 19.015625 L 69.71875 18.578125 C 67.8125 20.472656 67.957031 24.191406 70.15625 29.726562 C 72.648438 34.683594 76.679688 39.929688 82.25 45.464844 C 87.527344 50.859375 92.804688 54.792969 98.082031 57.269531 L 108.859375 57.707031 C 111.058594 55.523438 110.984375 51.878906 108.636719 46.777344 C 106.292969 41.386719 102.40625 35.996094 96.984375 30.601562 C 91.414062 25.210938 86.0625 21.347656 80.933594 19.015625 M 17.601562 34.535156 C 13.5 25.066406 11.886719 16.976562 12.765625 10.273438 L 3.75 26.011719 C 1.257812 32.714844 3.089844 42.042969 9.246094 53.992188 C 15.550781 66.085938 24.785156 78.183594 36.953125 90.277344 C 48.972656 102.226562 61.140625 111.335938 73.457031 117.601562 C 85.476562 123.867188 94.785156 125.761719 101.382812 123.285156 L 116.335938 114.320312 C 109.738281 115.34375 101.894531 113.738281 92.804688 109.511719 C 85.914062 106.453125 78.734375 102.152344 71.257812 96.617188 L 49.488281 78.035156 L 30.796875 56.394531 C 25.078125 48.816406 20.679688 41.53125 17.601562 34.535156 M 66.859375 31.039062 C 64.953125 27.105469 64.292969 23.753906 64.878906 20.984375 C 65.027344 18.945312 65.757812 17.269531 67.078125 15.957031 C 67.8125 15.082031 68.691406 14.5 69.71875 14.207031 C 64.734375 11.148438 59.96875 9.328125 55.425781 8.742188 C 47.363281 4.371094 40.25 1.820312 34.09375 1.09375 C 27.644531 0.363281 22.953125 1.457031 20.023438 4.371094 C 15.625 8.742188 15.992188 16.757812 21.121094 28.417969 C 26.839844 42.84375 38.054688 58.363281 54.765625 74.976562 C 70.449219 90.570312 85.695312 100.988281 100.503906 106.234375 C 108.125 109.003906 114.207031 110.242188 118.753906 109.949219 C 120.21875 109.804688 121.832031 108.855469 123.589844 107.109375 C 126.523438 104.195312 127.476562 99.457031 126.449219 92.898438 C 125.863281 86.78125 123.371094 79.785156 118.972656 71.914062 C 118.53125 67.542969 116.628906 62.808594 113.253906 57.707031 L 111.714844 60.332031 C 110.398438 61.640625 108.710938 62.445312 106.660156 62.734375 C 103.875 63.027344 100.503906 62.296875 96.542969 60.550781 C 90.828125 57.925781 85.109375 53.773438 79.390625 48.089844 C 73.527344 42.261719 69.351562 36.578125 66.859375 31.039062 "/>
</g>
</svg>

<svg xmlns="http://www.w3.org/2000/svg" width="128pt" height="127pt" viewBox="0 0 128 127"><path d="m80.934 19.016-11.215-.438q-2.86 2.844.437 11.149 3.739 7.436 12.094 15.738 7.916 8.09 15.832 11.805l10.777.437q3.3-3.276-.222-10.93-3.517-8.084-11.653-16.175-8.356-8.087-16.05-11.586m-63.332 15.52q-6.154-14.207-4.836-24.263L3.75 26.012Q.012 36.067 9.246 53.992c6.305 12.094 15.54 24.192 27.707 36.285q18.03 17.926 36.504 27.325 18.03 9.398 27.926 5.683l14.953-8.965c-6.598 1.024-14.441-.582-23.531-4.808-6.89-3.059-14.07-7.36-21.547-12.895l-21.77-18.582-18.691-21.64q-8.578-11.367-13.195-21.86m49.257-3.496Q64 25.14 64.88 20.984q.22-3.058 2.2-5.027 1.1-1.312 2.64-1.75Q62.24 9.62 55.426 8.742 43.33 2.185 34.094 1.094 24.419 0 20.024 4.37q-6.598 6.557 1.097 24.047Q29.7 50.057 54.766 74.977q23.525 23.389 45.738 31.257 11.43 4.155 18.25 3.715c1.465-.144 3.078-1.094 4.836-2.84q4.4-4.372 2.86-14.21-.88-9.178-7.477-20.985c-.442-4.371-2.344-9.105-5.72-14.207l-1.538 2.625c-1.317 1.309-3.004 2.113-5.055 2.402q-4.177.438-10.117-2.183-8.574-3.937-17.152-12.461-8.795-8.743-12.532-17.05"/></svg>
